packages/ui-icons/svg/Solid/filmstrip.svg

<svg viewBox="0 0 1920 1920" version="1.1" xmlns="http://www.w3.org/2000/svg">
    <path d="M746.666667,1374.30933 L746.666667,545.936 L1437.01333,960.122667 L746.666667,1374.30933 Z M1879.04,321.616 C1278.93333,178.149333 640.64,178.149333 40.96,321.616 L0,331.429333 L0,1588.92267 L40.96,1598.736 C341.013333,1670.416 650.24,1706.78933 960,1706.78933 C1269.86667,1706.78933 1579.2,1670.416 1879.04,1598.736 L1920,1588.92267 L1920,331.429333 L1879.04,321.616 Z" stroke="none" stroke-width="1" fill-rule="evenodd"/>
</svg>

<svg viewBox="0 0 1920 1920" xmlns="http://www.w3.org/2000/svg">
    <path d="M746.667 1374.31V545.935l690.346 414.187-690.346 414.186ZM1879.04 321.615c-600.107-143.467-1238.4-143.467-1838.08 0L0 331.429v1257.494l40.96 9.813c300.053 71.68 609.28 108.053 919.04 108.053 309.867 0 619.2-36.373 919.04-108.053l40.96-9.813V331.429l-40.96-9.813Z" fill-rule="evenodd"/>
</svg>
